X: 1
T: The Kilt is my Delight
O: Trad
R: reel
Z: John Chambers <jc:trillian.mit.edu>
M: C|
L: 1/8
K: D
dB \
| "D"~A2AB "Bm"ABdf | "Em"edef "A7"edBd | "D"~A2AB "(Bm)"ABdf | "A7"edef "D"d2 :: ef | "G"g2ag "D"f2af |
| "Em"edef "A7"edBd \
|1 "G"g2ag "D"f2af | "Em"edef "A7"a2 \
:|2 "D"~A2AB "(Bm)"ABdf | "A7"edef "D"d2 |]
